X: 33192
T: Proinnsias Ó Maonaigh's
R: barndance
M: 4/4
K: Dmajor
fg|:afge ~f3e|defd B2ef|gefd e2d2|c2 (3BcB A2fg|
afge ~f3e|defd B2ef|gefd e2a2|1 ~A2Bc defg:|2 ~A2Bc d2D2||
|:DEFG A2A2|ABde f2af|gefd ~e2dB|ABAF EGFE|
DEFG A2A2|ABde f2af|gefd e2a2|1 ~A2Bc d2D2:|2 ~A2Bc defg||

